X:1858
T:Bourrée
C:MCTB 1/49
M:3/8
L:1/16
K:C
c2Bcde|f2d2g2|f2g4|d6|\
c2Bcde|f2d2g2|f2g4|d4g2:|
|:agf2e2|d3ef2|edc2d2|e2d2g2|\
agf2e2|d3ef2|edc2B2|c6:|


